main/rsc/climacons/Cloud-Snow.svg

<svg width="100" height="100" xmlns="http://www.w3.org/2000/svg">

 <g>
  <title>background</title>
  <rect fill="none" id="canvas_background" height="402" width="582" y="-1" x="-1"/>
 </g>
 <g>
  <title>Layer 1</title>
  <path fill="#ffffff" id="svg_1" d="m63.999,64.943l0,-4.381c2.389,-1.385 3.999,-3.963 3.999,-6.922c0,-4.416 -3.581,-7.998 -7.999,-7.998c-1.6,0 -3.083,0.48 -4.333,1.291c-1.231,-5.317 -5.974,-9.291 -11.665,-9.291c-6.627,0 -11.998,5.373 -11.998,12c0,3.549 1.55,6.729 4,8.924l0,4.916c-4.777,-2.768 -8,-7.922 -8,-13.84c0,-8.836 7.163,-15.999 15.998,-15.999c6.004,0 11.229,3.312 13.965,8.204c0.664,-0.113 1.337,-0.205 2.033,-0.205c6.627,0 11.999,5.373 11.999,11.998c0,5.223 -3.343,9.653 -7.999,11.303zm-21.998,-7.302c1.105,0 2,0.896 2,2c0,1.105 -0.895,2 -2,2c-1.104,0 -1.999,-0.895 -1.999,-2c0,-1.104 0.895,-2 1.999,-2zm0,8c1.105,0 2,0.895 2,2c0,1.104 -0.895,1.998 -2,1.998c-1.104,0 -1.999,-0.895 -1.999,-1.998c0,-1.106 0.895,-2 1.999,-2zm8,-4c1.104,0 2,0.895 2,2c0,1.104 -0.896,2 -2,2c-1.105,0 -2,-0.896 -2,-2c0,-1.106 0.895,-2 2,-2zm0,7.998c1.104,0 2,0.896 2,2c0,1.105 -0.896,2 -2,2c-1.105,0 -2,-0.895 -2,-2c0,-1.104 0.895,-2 2,-2zm7.998,-11.998c1.105,0 2,0.896 2,2c0,1.105 -0.895,2 -2,2c-1.104,0 -1.999,-0.895 -1.999,-2c0,-1.104 0.896,-2 1.999,-2zm0,8c1.105,0 2,0.895 2,2c0,1.104 -0.895,1.998 -2,1.998c-1.104,0 -1.999,-0.895 -1.999,-1.998c0,-1.106 0.896,-2 1.999,-2z" clip-rule="evenodd" fill-rule="evenodd"/>
 </g>
</svg>

<?xml version="1.0" encoding="utf-8"?>
<!-- Generator: Adobe Illustrator 15.1.0, SVG Export Plug-In . SVG Version: 6.00 Build 0)  -->
<!DOCTYPE svg PUBLIC "-//W3C//DTD SVG 1.1//EN" "http://www.w3.org/Graphics/SVG/1.1/DTD/svg11.dtd">
<svg version="1.1" id="Layer_1" xmlns="http://www.w3.org/2000/svg" xmlns:xlink="http://www.w3.org/1999/xlink" x="0px" y="0px"
	 width="100px" height="100px" viewBox="0 0 100 100" enable-background="new 0 0 100 100" xml:space="preserve">
<path fill-rule="evenodd" clip-rule="evenodd" d="M63.999,64.943v-4.381c2.389-1.385,3.999-3.963,3.999-6.922
	c0-4.416-3.581-7.998-7.999-7.998c-1.6,0-3.083,0.48-4.333,1.291c-1.231-5.317-5.974-9.291-11.665-9.291
	c-6.627,0-11.998,5.373-11.998,12c0,3.549,1.55,6.729,4,8.924v4.916c-4.777-2.768-8-7.922-8-13.84
	c0-8.836,7.163-15.999,15.998-15.999c6.004,0,11.229,3.312,13.965,8.204c0.664-0.113,1.337-0.205,2.033-0.205
	c6.627,0,11.999,5.373,11.999,11.998C71.998,58.863,68.655,63.293,63.999,64.943z M42.001,57.641c1.105,0,2,0.896,2,2
	c0,1.105-0.895,2-2,2c-1.104,0-1.999-0.895-1.999-2C40.002,58.537,40.897,57.641,42.001,57.641z M42.001,65.641c1.105,0,2,0.895,2,2
	c0,1.104-0.895,1.998-2,1.998c-1.104,0-1.999-0.895-1.999-1.998C40.002,66.535,40.897,65.641,42.001,65.641z M50.001,61.641
	c1.104,0,2,0.895,2,2c0,1.104-0.896,2-2,2c-1.105,0-2-0.896-2-2C48.001,62.535,48.896,61.641,50.001,61.641z M50.001,69.639
	c1.104,0,2,0.896,2,2c0,1.105-0.896,2-2,2c-1.105,0-2-0.895-2-2C48.001,70.535,48.896,69.639,50.001,69.639z M57.999,57.641
	c1.105,0,2,0.896,2,2c0,1.105-0.895,2-2,2c-1.104,0-1.999-0.895-1.999-2C56,58.537,56.896,57.641,57.999,57.641z M57.999,65.641
	c1.105,0,2,0.895,2,2c0,1.104-0.895,1.998-2,1.998c-1.104,0-1.999-0.895-1.999-1.998C56,66.535,56.896,65.641,57.999,65.641z"/>
</svg>
